X: 1
T: Hammy Hamilton's Highland
M: 4/4
L: 1/8
D: A Clare Conscience, Anthony Quigney and Aidan McMahon
K: Gmaj
Bc:|d3 B GABG|E2 E2 D4|B/B/c dB AGAB|A3 B A2 Bc|
dedB GABG|E2 E2 D4|B/B/c dB AGAB|1 G2 GF G2 Bc:|2 G2 GF G2 Bd||
e3 f g2 fg|edd^c d2 Bd|edBd gdBG|(3ABA ^GB A2 Bd|
e3 f g2 fg|edd^c d2 Bd|ed B/c/d gdBG|(3ABA GF G2 Bd|
e3 f g2 fg|edd^c d2 Bd|edBd gdBG|(3ABA ^GB A2 Bc|
d3 B GABG| E2 E2 D4|B/B/c dB AGAB|G2 GF G2 Bc||
